X: 22800
T: Lanigan's Ball
R: jig
M: 6/8
K: Eminor
|:EFE G2A|B2A B^cd|DED F2G|AdB AFD|
EFE G2A|B2A B^cd|e2B cBA|1 BGE E2B:|2 BGE E3||
|:e2f gfe|fag fed|e2f gfe|fBB B2^d|
e2f gfe|fag fed|e2B cBA|1 BGE E3:|2 BGE E2B||

